X: 1
T: HOLIDAY SCHOTTISCH   [Bb]
C: Stephen C. Foster (1853)
R: shottish
F: http://www.loc.gov/resource/sm1853.210050/
Z: 2014 John Chambers <jc:trillian.mit.edu>
N: The A and B parts were written an octave higher.
M: 2/6
L: 1/16
P: AA BA CC DC'A
K: Bb
%Q: "Poco Lento"
% - - - - - - - - - - - - - - - - - - - - - - - - -
"A"\
|:   "Bb"{F}.d2.d2 {D}.B2.B2 | FGFE D2F2 |\
[1,3 "F7"{F}EDEA [d2A2]c2 | "Bb"{c}BABd [g2d2]f2 :|\
[2,4 "F7"{F}EDEA [d3A3]c | "Bb"B2B2B2z2 :|
% - - - - - - - - - - - - - - - - - - - - - - - - -
"B"\
|: "C7"({c}d2c2) =E3G | "F"FAcf a3a |\
[1 "C7"c'2b=e a2gB | "F"g2fA d2c2 :|\
[2 "C7"c'2b=e agde | "F"f2[f2A2][f2A2]"d.C."z2 |]
% - - - - - - - - - - - - - - - - - - - - - - - - -
K: Eb
%
"C"\
|:   "Eb"[g3G3]f edcB | (3BcBG2 [c3G3]B | "Bb7"(3ABAF2 [f3F3]d |\
[1,3 "Eb"{f}(ed).e.g ([c'2g2]b2) :|\
[2,4 "Eb"e2[e2G2][e2G2]z2 :|
% - - - - - - - - - - - - - - - - - - - - - - - - -
"D"\
|: "F7"f4 edeg | "Bb"f2d2 [b4d4] |\
[1 "F7"f2e2 c3g | "Bb"f2d2 [d'4d4] :|\
[2 "F7"f2e2 [c'3e3]=a | "Bb"b2[b2d2][b2d2]z2 |]
%
"C'"\
|: "Eb"[g3G3]f edcB | (3BcBG2 (3BcBG2 | "Bb7"(3ABAF2 [f3F3]d |\
[1 "Eb"{f}(ed).e.g ([c'2g2]b2) :|\
[2 "Eb"e2[e2G2]"d.C."[e2G2] |]
%%text The A and B parts were written an octave higher.

%%sep 1 1 500
